public/img/clients/tpl.svg

<svg width="200" height="100" viewBox="0 0 200 100" fill="none" xmlns="http://www.w3.org/2000/svg">
<path d="M42.3 41.2001V36.0001C42.3 35.7001 42 35.4001 41.7 35.4001H38.2C37.9 35.4001 37.6 35.7001 37.6 36.0001V38.1001C37.6 39.8001 36.7 41.2001 34.6 41.2001H34.2C33.9 41.2001 33.6 41.5001 33.6 41.8001V45.2001C33.6 45.5001 33.9 45.8001 34.2 45.8001H37.1V54.8001C37.1 58.5001 39.5 60.8001 43.3 60.8001C44.5 60.8001 45.3 60.6001 45.8 60.5001C46.1 60.4001 46.2 60.2001 46.2 59.9001V56.7001C46.2 56.3001 45.9 56.1001 45.5 56.1001C45.2 56.1001 44.9 56.2001 44.6 56.2001C43.1 56.2001 42.3 55.6001 42.3 54.0001V45.9001H48.3V67.4001C48.3 67.7001 48.6 68.0001 48.9 68.0001H52.9C53.2 68.0001 53.5 67.7001 53.5 67.4001V58.6001C54.4 59.9001 56.4 61.0001 59.1 61.0001C64.6 61.0001 68.3 56.9001 68.3 51.0001C68.3 45.2001 65 40.9001 59.3 40.9001C56.4 40.9001 54.2 42.2001 53.3 43.7001C53.3 42.4001 52.2 41.3001 50.9 41.3001H42.3V41.2001ZM58.4 56.2001C55.7 56.2001 53.5 54.3001 53.5 50.9001C53.5 47.5001 55.7 45.5001 58.4 45.5001C61.1 45.5001 63.2 47.5001 63.2 50.9001C63.2 54.4001 61.1 56.2001 58.4 56.2001Z" fill="black"/>
<path d="M75.1 32.1001H71.1C70.8 32.1001 70.5 32.4001 70.5 32.7001V60.1001C70.5 60.4001 70.8 60.7001 71.1 60.7001H75.1C75.4 60.7001 75.7 60.4001 75.7 60.1001V32.7001C75.8 32.3001 75.5 32.1001 75.1 32.1001Z" fill="black"/>
<path d="M83.5 41C85.4 41 87 42.6 87 44.5C87 46.4 85.4 48 83.5 48C81.6 48 80 46.4 80 44.5C80 42.6 81.6 41 83.5 41Z" fill="black"/>
<path d="M83.5 53.9001C85.4 53.9001 87 55.5001 87 57.4001C87 59.3001 85.4 60.9001 83.5 60.9001C81.6 60.9001 80 59.3001 80 57.4001C80 55.5001 81.6 53.9001 83.5 53.9001Z" fill="black"/>
<path d="M123.7 41.2001H124.8C124.9 41.2001 125 41.3001 125 41.4001V42.6001C125 42.7001 124.9 42.8001 124.8 42.8001H123.7V45.6001C123.7 46.2001 124 46.4001 124.5 46.4001C124.6 46.4001 124.7 46.4001 124.8 46.4001C124.9 46.4001 125 46.5001 125 46.6001V47.7001C125 47.8001 124.9 47.9001 124.9 47.9001C124.7 48.0001 124.4 48.0001 124 48.0001C122.7 48.0001 121.9 47.2001 121.9 46.0001V42.9001H120.9C120.8 42.9001 120.7 42.8001 120.7 42.7001V41.5001C120.7 41.4001 120.8 41.3001 120.9 41.3001H121C121.7 41.3001 122 40.8001 122 40.3001V39.6001C122 39.5001 122.1 39.4001 122.2 39.4001H123.4C123.5 39.4001 123.6 39.5001 123.6 39.6001V41.2001H123.7Z" fill="black"/>
<path d="M132.2 44.5002C132.2 46.5002 130.7 48.0002 128.7 48.0002C126.7 48.0002 125.2 46.5002 125.2 44.5002C125.2 42.5002 126.7 41.0002 128.7 41.0002C130.7 41.0002 132.2 42.5002 132.2 44.5002ZM130.5 44.5002C130.5 43.3002 129.7 42.6002 128.8 42.6002C127.9 42.6002 127.1 43.2002 127.1 44.5002C127.1 45.7002 127.9 46.4002 128.8 46.4002C129.6 46.4002 130.5 45.8002 130.5 44.5002Z" fill="black"/>
<path d="M115.8 47.8002H114.4C114.3 47.8002 114.2 47.7002 114.2 47.6002V41.4002C114.2 41.3002 114.3 41.2002 114.4 41.2002H115.7C115.8 41.2002 115.9 41.3002 115.9 41.4002V42.0002C116.3 41.3002 117.1 41.0002 117.8 41.0002C119.4 41.0002 120.2 42.2002 120.2 43.6002V47.6002C120.2 47.7002 120.1 47.8002 120 47.8002H118.6C118.5 47.8002 118.4 47.7002 118.4 47.6002V44.0002C118.4 43.3002 118 42.7002 117.2 42.7002C116.4 42.7002 116 43.3002 116 44.1002V47.7002C116 47.7002 115.9 47.8002 115.8 47.8002Z" fill="black"/>
<path d="M113.5 44.5002C113.5 46.5002 112 48.0002 110 48.0002C108 48.0002 106.5 46.5002 106.5 44.5002C106.5 42.5002 108 41.0002 110 41.0002C112 41.0002 113.5 42.5002 113.5 44.5002ZM111.7 44.5002C111.7 43.3002 110.9 42.6002 110 42.6002C109.1 42.6002 108.3 43.2002 108.3 44.5002C108.3 45.7002 109.1 46.4002 110 46.4002C110.9 46.4002 111.7 45.8002 111.7 44.5002Z" fill="black"/>
<path d="M106.5 42.8C106.5 42.9 106.4 43 106.3 43C106.2 43 106.1 43 106 43C105.1 43 104.3 43.4001 104.3 44.9001V47.7001C104.3 47.8001 104.2 47.9001 104.1 47.9001H102.7C102.6 47.9001 102.5 47.8001 102.5 47.7001V41.5C102.5 41.4 102.6 41.3 102.7 41.3H104C104.1 41.3 104.2 41.4 104.2 41.5V42.3C104.6 41.4 105.5 41.3 106.1 41.3C106.2 41.3 106.3 41.3 106.3 41.3C106.4 41.3 106.5 41.4 106.5 41.5V42.8Z" fill="black"/>
<path d="M101.6 44.5002C101.6 46.5002 100.1 48.0002 98.1 48.0002C96.1 48.0002 94.6 46.5002 94.6 44.5002C94.6 42.5002 96.1 41.0002 98.1 41.0002C100.1 41.0002 101.6 42.5002 101.6 44.5002ZM99.9 44.5002C99.9 43.3002 99.1 42.6002 98.2 42.6002C97.3 42.6002 96.5 43.2002 96.5 44.5002C96.5 45.7002 97.3 46.4002 98.2 46.4002C99.1 46.4002 99.9 45.8002 99.9 44.5002Z" fill="black"/>
<path d="M93.1 41.2001H94.2C94.3 41.2001 94.4 41.3001 94.4 41.4001V42.6001C94.4 42.7001 94.3 42.8001 94.2 42.8001H93.1V45.6001C93.1 46.2001 93.4 46.4001 93.9 46.4001C94 46.4001 94.1 46.4001 94.2 46.4001C94.3 46.4001 94.4 46.5001 94.4 46.6001V47.7001C94.4 47.8001 94.3 47.9001 94.3 47.9001C94.1 48.0001 93.8 48.0001 93.4 48.0001C92.1 48.0001 91.3 47.2001 91.3 46.0001V42.9001H90.3C90.2 42.9001 90.1 42.8001 90.1 42.7001V41.5001C90.1 41.4001 90.2 41.3001 90.3 41.3001H90.4C91.1 41.3001 91.4 40.8001 91.4 40.3001V39.6001C91.4 39.5001 91.5 39.4001 91.6 39.4001H92.8C92.9 39.4001 93 39.5001 93 39.6001V41.2001H93.1Z" fill="black"/>
<path d="M159.2 55.6001C159.2 55.7001 159.1 55.8001 159 55.8001C158.9 55.8001 158.8 55.8001 158.7 55.8001C157.8 55.8001 157 56.2001 157 57.7001V60.5001C157 60.6001 156.9 60.7001 156.8 60.7001H155.4C155.3 60.7001 155.2 60.6001 155.2 60.5001V54.3001C155.2 54.2001 155.3 54.1001 155.4 54.1001H156.7C156.8 54.1001 156.9 54.2001 156.9 54.3001V55.1001C157.3 54.2001 158.2 54.1001 158.8 54.1001C158.9 54.1001 159 54.1001 159 54.1001C159.1 54.1001 159.2 54.2001 159.2 54.3001V55.6001Z" fill="black"/>
<path d="M147 55.6001C147 55.7001 146.9 55.8001 146.8 55.8001C146.7 55.8001 146.6 55.8001 146.5 55.8001C145.6 55.8001 144.8 56.2001 144.8 57.7001V60.5001C144.8 60.6001 144.7 60.7001 144.6 60.7001H143.2C143.1 60.7001 143 60.6001 143 60.5001V54.3001C143 54.2001 143.1 54.1001 143.2 54.1001H144.5C144.6 54.1001 144.7 54.2001 144.7 54.3001V55.1001C145.1 54.2001 146 54.1001 146.6 54.1001C146.7 54.1001 146.8 54.1001 146.8 54.1001C146.9 54.1001 147 54.2001 147 54.3001V55.6001Z" fill="black"/>
<path d="M160.6 63L162 59.8L159.3 54.3C159.2 54.2 159.3 54 159.5 54H161C161.1 54 161.2 54 161.2 54.1L163 58L164.6 54.3C164.6 54.2 164.7 54.2 164.8 54.2H166.3C166.4 54.2 166.5 54.4 166.5 54.5L162.5 63.3C162.5 63.4 162.4 63.4 162.3 63.4H160.8C160.6 63.3 160.5 63.2 160.6 63Z" fill="black"/>
<path d="M152.1 59.8001C151.8 60.4001 151.1 60.9001 150.2 60.9001C148.3 60.9001 147 59.4001 147 57.4001C147 55.5001 148.3 53.9001 150.2 53.9001C151.4 53.9001 151.9 54.5001 152.1 54.9001V54.3001C152.1 54.2001 152.2 54.1001 152.3 54.1001H153.6C153.7 54.1001 153.8 54.2001 153.8 54.3001V59.5001C153.8 59.9001 153.8 60.3001 153.8 60.5001C153.8 60.6001 153.7 60.7001 153.6 60.7001H152.3C152.2 60.7001 152.1 60.6001 152.1 60.5001C152.2 60.4001 152.1 60.1001 152.1 59.8001ZM150.5 59.4001C151.4 59.4001 152.1 58.6001 152.1 57.4001C152.1 56.2001 151.4 55.5001 150.5 55.5001C149.5 55.5001 148.8 56.2001 148.8 57.4001C148.8 58.6001 149.5 59.4001 150.5 59.4001Z" fill="black"/>
<path d="M135.4 60.5V51.2C135.4 51.1 135.5 51 135.6 51H137C137.1 51 137.2 51.1 137.2 51.2V54.8C137.5 54.3 138.2 53.9 139.2 53.9C141.1 53.9 142.2 55.4 142.2 57.4C142.2 59.4 141 60.9 139.1 60.9C138.2 60.9 137.5 60.5 137.1 59.9V60.5C137.1 60.6 137 60.7 136.9 60.7H135.6C135.5 60.7 135.4 60.6 135.4 60.5ZM138.8 55.5C137.9 55.5 137.1 56.2 137.1 57.4C137.1 58.6 137.9 59.3 138.8 59.3C139.7 59.3 140.4 58.6 140.4 57.4C140.4 56.2 139.7 55.5 138.8 55.5Z" fill="black"/>
<path d="M133.2 50.8C133.8 50.8 134.3 51.3001 134.3 51.9001C134.3 52.5001 133.8 53 133.2 53C132.6 53 132.1 52.5001 132.1 51.9001C132.1 51.3001 132.6 50.8 133.2 50.8ZM132.3 60.5V54.3C132.3 54.2 132.4 54.1 132.5 54.1H133.9C134 54.1 134.1 54.2 134.1 54.3V60.5C134.1 60.6 134 60.7001 133.9 60.7001H132.5C132.4 60.7001 132.3 60.6 132.3 60.5Z" fill="black"/>
<path d="M129.3 60.5V51.2C129.3 51.1 129.4 51 129.5 51H130.9C131 51 131.1 51.1 131.1 51.2V60.5C131.1 60.6 131 60.7 130.9 60.7H129.5C129.3 60.7 129.3 60.6 129.3 60.5Z" fill="black"/>
<path d="M121.1 57.4C121.1 58.6 121.9 59.3 122.8 59.3C123.6 59.3 124.1 58.8 124.3 58.4C124.3 58.3 124.5 58.2 124.6 58.3L125.8 58.7C125.9 58.7 126 58.9 125.9 59C125.5 60 124.5 61 122.9 61C121 61 119.4 59.5 119.4 57.5C119.4 55.5 120.9 54 122.8 54C124.5 54 125.5 55 125.8 56C125.8 56.1 125.8 56.2 125.7 56.3L124.5 56.7C124.4 56.7 124.3 56.7 124.2 56.6C124 56.1 123.6 55.7 122.8 55.7C121.9 55.6 121.1 56.2 121.1 57.4Z" fill="black"/>
<path d="M117.6 50.8C118.2 50.8 118.7 51.3001 118.7 51.9001C118.7 52.5001 118.2 53 117.6 53C117 53 116.5 52.5001 116.5 51.9001C116.5 51.3001 117 50.8 117.6 50.8ZM116.7 60.5V54.3C116.7 54.2 116.8 54.1 116.9 54.1H118.3C118.4 54.1 118.5 54.2 118.5 54.3V60.5C118.5 60.6 118.4 60.7001 118.3 60.7001H116.9C116.8 60.7001 116.7 60.6 116.7 60.5Z" fill="black"/>
<path d="M113.7 60.5V51.2C113.7 51.1 113.8 51 113.9 51H115.3C115.4 51 115.5 51.1 115.5 51.2V60.5C115.5 60.6 115.4 60.7 115.3 60.7H113.9C113.8 60.7 113.7 60.6 113.7 60.5Z" fill="black"/>
<path d="M106.1 60.5V51.2C106.1 51.1 106.2 51 106.3 51H107.7C107.8 51 107.9 51.1 107.9 51.2V54.8C108.2 54.3 108.9 53.9 109.9 53.9C111.8 53.9 112.9 55.4 112.9 57.4C112.9 59.4 111.7 60.9 109.8 60.9C108.9 60.9 108.2 60.5 107.8 59.9V60.5C107.8 60.6 107.7 60.7 107.6 60.7H106.3C106.2 60.7 106.1 60.6 106.1 60.5ZM109.5 55.5C108.6 55.5 107.8 56.2 107.8 57.4C107.8 58.6 108.6 59.3 109.5 59.3C110.4 59.3 111.1 58.6 111.1 57.4C111.1 56.2 110.4 55.5 109.5 55.5Z" fill="black"/>
<path d="M103.1 60.0001C102.7 60.6001 102 60.9001 101.3 60.9001C99.6999 60.9001 98.7999 59.7001 98.7999 58.3001V54.3001C98.7999 54.2001 98.8999 54.1001 98.9999 54.1001H100.4C100.5 54.1001 100.6 54.2001 100.6 54.3001V57.9001C100.6 58.6001 101 59.2001 101.8 59.2001C102.6 59.2001 103 58.7001 103 57.9001V54.3001C103 54.2001 103.1 54.1001 103.2 54.1001H104.6C104.7 54.1001 104.8 54.2001 104.8 54.3001V59.5001C104.8 59.9001 104.8 60.2001 104.8 60.5001C104.8 60.6001 104.7 60.7001 104.6 60.7001H103.3C103.2 60.7001 103.1 60.6001 103.1 60.5001C103.1 60.4001 103.1 60.2001 103.1 60.0001Z" fill="black"/>
<path d="M91.2999 63.1001V54.3001C91.2999 54.2001 91.3999 54.1001 91.4999 54.1001H92.7999C92.8999 54.1001 92.9999 54.2001 92.9999 54.3001V54.9001C93.2999 54.4001 93.9999 53.9001 94.9999 53.9001C96.8999 53.9001 97.9999 55.4001 97.9999 57.3001C97.9999 59.3001 96.7999 60.8001 94.8999 60.8001C93.9999 60.8001 93.2999 60.4001 92.9999 60.0001V63.0001C92.9999 63.1001 92.8999 63.2001 92.7999 63.2001H91.3999C91.3999 63.3001 91.2999 63.2001 91.2999 63.1001ZM94.6999 55.6001C93.7999 55.6001 92.9999 56.3001 92.9999 57.5001C92.9999 58.7001 93.6999 59.4001 94.6999 59.4001C95.5999 59.4001 96.2999 58.7001 96.2999 57.5001C96.2999 56.2001 95.5999 55.6001 94.6999 55.6001Z" fill="black"/>
</svg>

<svg xmlns="http://www.w3.org/2000/svg" focusable="false" role="img" viewBox="0 0 200 100" fill="currentColor">
  <path d="M42.3 41.2V36c0-.3-.3-.6-.6-.6h-3.5c-.3 0-.6.3-.6.6v2.1c0 1.7-.9 3.1-3 3.1h-.4c-.3 0-.6.3-.6.6v3.4c0 .3.3.6.6.6h2.9v9c0 3.7 2.4 6 6.2 6 1.2 0 2-.2 2.5-.3.3-.1.4-.3.4-.6v-3.2c0-.4-.3-.6-.7-.6-.3 0-.6.1-.9.1-1.5 0-2.3-.6-2.3-2.2v-8.1h6v21.5c0 .3.3.6.6.6h4c.3 0 .6-.3.6-.6v-8.8c.9 1.3 2.9 2.4 5.6 2.4 5.5 0 9.2-4.1 9.2-10 0-5.8-3.3-10.1-9-10.1-2.9 0-5.1 1.3-6 2.8 0-1.3-1.1-2.4-2.4-2.4h-8.6v-.1zm16.1 15c-2.7 0-4.9-1.9-4.9-5.3s2.2-5.4 4.9-5.4 4.8 2 4.8 5.4c0 3.5-2.1 5.3-4.8 5.3zM75.1 32.1h-4c-.3 0-.6.3-.6.6v27.4c0 .3.3.6.6.6h4c.3 0 .6-.3.6-.6V32.7c.1-.4-.2-.6-.6-.6zM83.5 41c1.9 0 3.5 1.6 3.5 3.5S85.4 48 83.5 48 80 46.4 80 44.5s1.6-3.5 3.5-3.5zM83.5 53.9c1.9 0 3.5 1.6 3.5 3.5s-1.6 3.5-3.5 3.5-3.5-1.6-3.5-3.5 1.6-3.5 3.5-3.5zM123.7 41.2h1.1c.1 0 .2.1.2.2v1.2c0 .1-.1.2-.2.2h-1.1v2.8c0 .6.3.8.8.8h.3c.1 0 .2.1.2.2v1.1c0 .1-.1.2-.1.2-.2.1-.5.1-.9.1-1.3 0-2.1-.8-2.1-2v-3.1h-1c-.1 0-.2-.1-.2-.2v-1.2c0-.1.1-.2.2-.2h.1c.7 0 1-.5 1-1v-.7c0-.1.1-.2.2-.2h1.2c.1 0 .2.1.2.2v1.6h.1zM132.2 44.5c0 2-1.5 3.5-3.5 3.5s-3.5-1.5-3.5-3.5 1.5-3.5 3.5-3.5 3.5 1.5 3.5 3.5zm-1.7 0c0-1.2-.8-1.9-1.7-1.9-.9 0-1.7.6-1.7 1.9 0 1.2.8 1.9 1.7 1.9.8 0 1.7-.6 1.7-1.9zM115.8 47.8h-1.4c-.1 0-.2-.1-.2-.2v-6.2c0-.1.1-.2.2-.2h1.3c.1 0 .2.1.2.2v.6c.4-.7 1.2-1 1.9-1 1.6 0 2.4 1.2 2.4 2.6v4c0 .1-.1.2-.2.2h-1.4c-.1 0-.2-.1-.2-.2V44c0-.7-.4-1.3-1.2-1.3-.8 0-1.2.6-1.2 1.4v3.6s-.1.1-.2.1zM113.5 44.5c0 2-1.5 3.5-3.5 3.5s-3.5-1.5-3.5-3.5S108 41 110 41s3.5 1.5 3.5 3.5zm-1.8 0c0-1.2-.8-1.9-1.7-1.9-.9 0-1.7.6-1.7 1.9 0 1.2.8 1.9 1.7 1.9.9 0 1.7-.6 1.7-1.9zM106.5 42.8c0 .1-.1.2-.2.2h-.3c-.9 0-1.7.4-1.7 1.9v2.8c0 .1-.1.2-.2.2h-1.4c-.1 0-.2-.1-.2-.2v-6.2c0-.1.1-.2.2-.2h1.3c.1 0 .2.1.2.2v.8c.4-.9 1.3-1 1.9-1h.2c.1 0 .2.1.2.2v1.3zM101.6 44.5c0 2-1.5 3.5-3.5 3.5s-3.5-1.5-3.5-3.5 1.5-3.5 3.5-3.5 3.5 1.5 3.5 3.5zm-1.7 0c0-1.2-.8-1.9-1.7-1.9-.9 0-1.7.6-1.7 1.9 0 1.2.8 1.9 1.7 1.9.9 0 1.7-.6 1.7-1.9zM93.1 41.2h1.1c.1 0 .2.1.2.2v1.2c0 .1-.1.2-.2.2h-1.1v2.8c0 .6.3.8.8.8h.3c.1 0 .2.1.2.2v1.1c0 .1-.1.2-.1.2-.2.1-.5.1-.9.1-1.3 0-2.1-.8-2.1-2v-3.1h-1c-.1 0-.2-.1-.2-.2v-1.2c0-.1.1-.2.2-.2h.1c.7 0 1-.5 1-1v-.7c0-.1.1-.2.2-.2h1.2c.1 0 .2.1.2.2v1.6h.1zM159.2 55.6c0 .1-.1.2-.2.2h-.3c-.9 0-1.7.4-1.7 1.9v2.8c0 .1-.1.2-.2.2h-1.4c-.1 0-.2-.1-.2-.2v-6.2c0-.1.1-.2.2-.2h1.3c.1 0 .2.1.2.2v.8c.4-.9 1.3-1 1.9-1h.2c.1 0 .2.1.2.2v1.3zM147 55.6c0 .1-.1.2-.2.2h-.3c-.9 0-1.7.4-1.7 1.9v2.8c0 .1-.1.2-.2.2h-1.4c-.1 0-.2-.1-.2-.2v-6.2c0-.1.1-.2.2-.2h1.3c.1 0 .2.1.2.2v.8c.4-.9 1.3-1 1.9-1h.2c.1 0 .2.1.2.2v1.3zM160.6 63l1.4-3.2-2.7-5.5c-.1-.1 0-.3.2-.3h1.5c.1 0 .2 0 .2.1L163 58l1.6-3.7c0-.1.1-.1.2-.1h1.5c.1 0 .2.2.2.3l-4 8.8c0 .1-.1.1-.2.1h-1.5c-.2-.1-.3-.2-.2-.4zM152.1 59.8c-.3.6-1 1.1-1.9 1.1-1.9 0-3.2-1.5-3.2-3.5 0-1.9 1.3-3.5 3.2-3.5 1.2 0 1.7.6 1.9 1v-.6c0-.1.1-.2.2-.2h1.3c.1 0 .2.1.2.2v6.2c0 .1-.1.2-.2.2h-1.3c-.1 0-.2-.1-.2-.2.1-.1 0-.4 0-.7zm-1.6-.4c.9 0 1.6-.8 1.6-2s-.7-1.9-1.6-1.9c-1 0-1.7.7-1.7 1.9s.7 2 1.7 2zM135.4 60.5v-9.3c0-.1.1-.2.2-.2h1.4c.1 0 .2.1.2.2v3.6c.3-.5 1-.9 2-.9 1.9 0 3 1.5 3 3.5s-1.2 3.5-3.1 3.5c-.9 0-1.6-.4-2-1v.6c0 .1-.1.2-.2.2h-1.3c-.1 0-.2-.1-.2-.2zm3.4-5c-.9 0-1.7.7-1.7 1.9s.8 1.9 1.7 1.9c.9 0 1.6-.7 1.6-1.9s-.7-1.9-1.6-1.9zM133.2 50.8c.6 0 1.1.5 1.1 1.1 0 .6-.5 1.1-1.1 1.1-.6 0-1.1-.5-1.1-1.1 0-.6.5-1.1 1.1-1.1zm-.9 9.7v-6.2c0-.1.1-.2.2-.2h1.4c.1 0 .2.1.2.2v6.2c0 .1-.1.2-.2.2h-1.4c-.1 0-.2-.1-.2-.2zM129.3 60.5v-9.3c0-.1.1-.2.2-.2h1.4c.1 0 .2.1.2.2v9.3c0 .1-.1.2-.2.2h-1.4c-.2 0-.2-.1-.2-.2zM121.1 57.4c0 1.2.8 1.9 1.7 1.9.8 0 1.3-.5 1.5-.9 0-.1.2-.2.3-.1l1.2.4c.1 0 .2.2.1.3-.4 1-1.4 2-3 2-1.9 0-3.5-1.5-3.5-3.5s1.5-3.5 3.4-3.5c1.7 0 2.7 1 3 2 0 .1 0 .2-.1.3l-1.2.4c-.1 0-.2 0-.3-.1-.2-.5-.6-.9-1.4-.9-.9-.1-1.7.5-1.7 1.7zM117.6 50.8c.6 0 1.1.5 1.1 1.1 0 .6-.5 1.1-1.1 1.1-.6 0-1.1-.5-1.1-1.1 0-.6.5-1.1 1.1-1.1zm-.9 9.7v-6.2c0-.1.1-.2.2-.2h1.4c.1 0 .2.1.2.2v6.2c0 .1-.1.2-.2.2h-1.4c-.1 0-.2-.1-.2-.2zM113.7 60.5v-9.3c0-.1.1-.2.2-.2h1.4c.1 0 .2.1.2.2v9.3c0 .1-.1.2-.2.2h-1.4c-.1 0-.2-.1-.2-.2zM106.1 60.5v-9.3c0-.1.1-.2.2-.2h1.4c.1 0 .2.1.2.2v3.6c.3-.5 1-.9 2-.9 1.9 0 3 1.5 3 3.5s-1.2 3.5-3.1 3.5c-.9 0-1.6-.4-2-1v.6c0 .1-.1.2-.2.2h-1.3c-.1 0-.2-.1-.2-.2zm3.4-5c-.9 0-1.7.7-1.7 1.9s.8 1.9 1.7 1.9c.9 0 1.6-.7 1.6-1.9s-.7-1.9-1.6-1.9zM103.1 60c-.4.6-1.1.9-1.8.9-1.6 0-2.5-1.2-2.5-2.6v-4c0-.1.1-.2.2-.2h1.4c.1 0 .2.1.2.2v3.6c0 .7.4 1.3 1.2 1.3.8 0 1.2-.5 1.2-1.3v-3.6c0-.1.1-.2.2-.2h1.4c.1 0 .2.1.2.2v6.2c0 .1-.1.2-.2.2h-1.3c-.1 0-.2-.1-.2-.2V60zM91.3 63.1v-8.8c0-.1.1-.2.2-.2h1.3c.1 0 .2.1.2.2v.6c.3-.5 1-1 2-1 1.9 0 3 1.5 3 3.4 0 2-1.2 3.5-3.1 3.5-.9 0-1.6-.4-1.9-.8v3c0 .1-.1.2-.2.2h-1.4c0 .1-.1 0-.1-.1zm3.4-7.5c-.9 0-1.7.7-1.7 1.9s.7 1.9 1.7 1.9c.9 0 1.6-.7 1.6-1.9 0-1.3-.7-1.9-1.6-1.9z"/>
</svg>
